material/.icons/material/redo-variant.svg

<svg xmlns="http://www.w3.org/2000/svg" viewBox="0 0 24 24"><path d="M10.5 7A6.5 6.5 0 004 13.5a6.5 6.5 0 006.5 6.5H14v-2h-3.5C8 18 6 16 6 13.5S8 9 10.5 9h5.67l-3.08 3.09 1.41 1.41L20 8l-5.5-5.5-1.42 1.41L16.17 7H10.5M18 18h-2v2h2v-2z"/></svg>

<?xml version="1.0" encoding="UTF-8"?><!DOCTYPE svg PUBLIC "-//W3C//DTD SVG 1.1//EN" "http://www.w3.org/Graphics/SVG/1.1/DTD/svg11.dtd"><svg xmlns="http://www.w3.org/2000/svg" xmlns:xlink="http://www.w3.org/1999/xlink" version="1.1" id="mdi-redo-variant" width="24" height="24" viewBox="0 0 24 24"><path d="M10.5,7A6.5,6.5 0 0,0 4,13.5A6.5,6.5 0 0,0 10.5,20H14V18H10.5C8,18 6,16 6,13.5C6,11 8,9 10.5,9H16.17L13.09,12.09L14.5,13.5L20,8L14.5,2.5L13.08,3.91L16.17,7H10.5M18,18H16V20H18V18Z" /></svg>
